X:40
T:Monaltrie's Strathspey
S:Petrie's Collection of Strathspey Reels and Country Dances &c., 1790
Z:Steve Wyrick <sjwyrick'at'gmail'dot'com>, 3/19/04
N:Petrie's First Collection, page 18
L:1/8
M:C
R:Strathspey
K:F
A/B/| c>AF<c      _e/d/c/B/ f>d|c<ATa>f      gGGA/B/|\
      c>AF<c      _e/d/c/B/ fd |c<eg<b       a<ff  :|
f/g/|{f/g/}a>fg>e  f<de<c      |f>d d/c/B/A/ BGGf/g/|\
     {b}a>f{a}g>e  f<de<c      |d<Bb>g       a<fTf>g|
     (3afa (3geg  (3fdf   (3ece|.f(dTc>A)    B(GGD) |\
      C>FA,>F      B,>FC>F     |D<(dTc>B)    AFF   |]
